SVG_Azure_Grouped/Management/Resource Management Private Link.svg

<?xml version="1.0" encoding="UTF-8" standalone="no"?>
<!DOCTYPE svg PUBLIC "-//W3C//DTD SVG 1.1//EN" "http://www.w3.org/Graphics/SVG/1.1/DTD/svg11.dtd">
<!-- Generated by Microsoft Visio, SVG Export Resource Management Private Link.svg Page-1 -->
<svg xmlns="http://www.w3.org/2000/svg" xmlns:xlink="http://www.w3.org/1999/xlink" xmlns:ev="http://www.w3.org/2001/xml-events"
		width="1.73185in" height="1.69269in" viewBox="0 0 124.693 121.874" xml:space="preserve" color-interpolation-filters="sRGB"
		class="st6">
	<style type="text/css">
	<![CDATA[
		.st1 {fill:#9cebff;stroke:none;stroke-linecap:butt;stroke-width:34}
		.st2 {fill:#32bedd;stroke:none;stroke-linecap:butt;stroke-width:34}
		.st3 {fill:#50e6ff;stroke:none;stroke-linecap:butt;stroke-width:34}
		.st4 {fill:#1490df;stroke:none;stroke-linecap:butt;stroke-width:34}
		.st5 {fill:url(#grad0-18);stroke:none;stroke-linecap:butt;stroke-width:34}
		.st6 {fill:none;fill-rule:evenodd;font-size:12px;overflow:visible;stroke-linecap:square;stroke-miterlimit:3}
	]]>
	</style>

	<defs id="Patterns_And_Gradients">
		<linearGradient id="grad0-18" x1="0" y1="0" x2="1" y2="0" gradientTransform="rotate(90 0.5 0.5)">
			<stop offset="0" stop-color="#a3a3a3" stop-opacity="1"/>
			<stop offset="1" stop-color="#999999" stop-opacity="1"/>
		</linearGradient>
	</defs>
	<g>
		<title>Page-1</title>
		<g id="group11818-1" transform="translate(34,-34.0157)">
			<title>Resource Management Private Link.11818</title>
			<g id="group11819-2">
				<title>Sheet.11819</title>
				<g id="shape11820-3" transform="translate(15.2613,-14.838)">
					<title>Sheet.11820</title>
					<path d="M0 114.42 L13.02 106.98 L26.02 114.42 L13.02 121.87 L0 114.42 Z" class="st1"/>
				</g>
				<g id="shape11821-5" transform="translate(28.2654,0)">
					<title>Sheet.11821</title>
					<path d="M13.06 99.56 L13.06 114.4 L0 121.87 L0 107 L13.06 99.56 Z" class="st2"/>
				</g>
				<g id="shape11822-7">
					<title>Sheet.11822</title>
					<path d="M28.27 107.03 L28.27 121.87 L15.23 114.4 L15.23 99.56 L28.27 107.03 ZM12.59 117.11 L11.67 118.04 a0.629741
								 0.620058 0 0 1 -0.897381 0 L0.38 107.83 A1.25948 1.24012 0 0 1 0.38 106.06 L1.32 105.14 L12.59 116.23
								 a0.629741 0.620058 0 0 1 -8.88178E-15 0.868082 L12.59 117.11 Z" class="st3"/>
				</g>
				<g id="shape11823-9" transform="translate(2.01405E-05,-13.0212)">
					<title>Sheet.11823</title>
					<path d="M11.47 109.01 L12.51 110.03 a0.629741 0.620058 0 0 1 1.24345E-14 0.880483 L1.41 121.87 L0.37 120.86
								 A1.27837 1.25872 0 0 1 0.37 119.09 L10.57 109.01 a0.629741 0.620058 0 0 1 0.894232 -1.42109E-14
								 Z" class="st4"/>
				</g>
				<g id="shape11824-11" transform="translate(43.9768,-3.73063)">
					<title>Sheet.11824</title>
					<path d="M0.18 120.78 a0.629741 0.620058 0 0 1 -5.93969E-15 -0.861881 L11.4 108.9 L12.34 109.83 A1.25948 1.24012
								 0 0 1 12.34 111.59 L1.99 121.7 a0.629741 0.620058 0 0 1 -0.878488 0 L0.18 120.78 Z" class="st3"/>
				</g>
				<g id="shape11825-13" transform="translate(44.0728,-13.0212)">
					<title>Sheet.11825</title>
					<path d="M2.09 109.09 L12.23 119.11 A1.25948 1.24012 0 0 1 12.23 120.86 L11.2 121.87 L0.18 110.98 a0.648633 0.63866
								 0 0 1 3.71925E-15 -0.886683 L1.21 109.09 a0.629741 0.620058 0 0 1 0.87534 0 Z" class="st4"/>
				</g>
				<g id="shape11826-15" transform="translate(26.6218,-31.9082)">
					<title>Sheet.11826</title>
					<path d="M0.22 121.64 A2.88421 2.83987 0 0 1 3.12 121.64 L3.53 121.87 L3.53 105.73 L0 105.73 L0 121.76 L0.22
								 121.64 Z" class="st5"/>
				</g>
				<g id="shape11827-19" transform="translate(24.7212,-45.1415)">
					<title>Sheet.11827</title>
					<path d="M8.85 118.26 A5.18592 5.10618 0 1 1 3.67 113.16 A5.18906 5.10928 0 0 1 8.85 118.26 Z" class="st4"/>
				</g>
			</g>
		</g>
	</g>
</svg>

<?xml version="1.0" encoding="UTF-8" standalone="no"?>
<!-- Generated by Microsoft Visio, SVG Export Resource Management Private Link.svg Page-1 -->

<svg
   xmlns:dc="http://purl.org/dc/elements/1.1/"
   xmlns:cc="http://creativecommons.org/ns#"
   xmlns:rdf="http://www.w3.org/1999/02/22-rdf-syntax-ns#"
   xmlns:svg="http://www.w3.org/2000/svg"
   xmlns="http://www.w3.org/2000/svg"
   xmlns:sodipodi="http://sodipodi.sourceforge.net/DTD/sodipodi-0.dtd"
   xmlns:inkscape="http://www.inkscape.org/namespaces/inkscape"
   width="0.78733355in"
   height="0.74793559in"
   viewBox="0 0 56.687924 53.851504"
   xml:space="preserve"
   class="st6"
   version="1.1"
   id="svg60"
   sodipodi:docname="Resource Management Private Link.svg"
   style="font-size:12px;overflow:visible;color-interpolation-filters:sRGB;fill:none;fill-rule:evenodd;stroke-linecap:square;stroke-miterlimit:3"
   inkscape:version="0.92.5 (2060ec1f9f, 2020-04-08)"><metadata
   id="metadata64"><rdf:RDF><cc:Work
       rdf:about=""><dc:format>image/svg+xml</dc:format><dc:type
         rdf:resource="http://purl.org/dc/dcmitype/StillImage" /></cc:Work></rdf:RDF></metadata><sodipodi:namedview
   pagecolor="#ffffff"
   bordercolor="#666666"
   borderopacity="1"
   objecttolerance="10"
   gridtolerance="10"
   guidetolerance="10"
   inkscape:pageopacity="0"
   inkscape:pageshadow="2"
   inkscape:window-width="640"
   inkscape:window-height="480"
   id="namedview62"
   showgrid="false"
   inkscape:zoom="1.4523234"
   inkscape:cx="37.794312"
   inkscape:cy="35.889642"
   inkscape:window-x="0"
   inkscape:window-y="0"
   inkscape:window-maximized="0"
   inkscape:current-layer="svg60" />
	<style
   type="text/css"
   id="style2">
	<![CDATA[
		.st1 {fill:#9cebff;stroke:none;stroke-linecap:butt;stroke-width:34}
		.st2 {fill:#32bedd;stroke:none;stroke-linecap:butt;stroke-width:34}
		.st3 {fill:#50e6ff;stroke:none;stroke-linecap:butt;stroke-width:34}
		.st4 {fill:#1490df;stroke:none;stroke-linecap:butt;stroke-width:34}
		.st5 {fill:url(#grad0-18);stroke:none;stroke-linecap:butt;stroke-width:34}
		.st6 {fill:none;fill-rule:evenodd;font-size:12px;overflow:visible;stroke-linecap:square;stroke-miterlimit:3}
	]]>
	</style>

	<defs
   id="Patterns_And_Gradients">
		<linearGradient
   id="grad0-18"
   x1="0"
   y1="49.446302"
   x2="7.5481256"
   y2="49.446302"
   gradientTransform="scale(0.46766577,2.1382792)"
   gradientUnits="userSpaceOnUse">
			<stop
   offset="0"
   stop-color="#a3a3a3"
   stop-opacity="1"
   id="stop4" />
			<stop
   offset="1"
   stop-color="#999999"
   stop-opacity="1"
   id="stop6" />
		</linearGradient>
	</defs>
	<g
   id="g58"
   transform="translate(-34.000955,-34.002797)">
		<title
   id="title10">Page-1</title>
		<g
   id="group12097-1"
   transform="translate(34,-34.0157)">
			<title
   id="title12">Resource Management Private Link.12097</title>
			<g
   id="group12098-2">
				<title
   id="title14">Sheet.12098</title>
				<g
   id="shape12099-3"
   transform="translate(15.2613,-14.838)">
					<title
   id="title16">Sheet.12099</title>
					<path
   d="m 0,114.42 13.02,-7.44 13,7.44 -13,7.45 z"
   class="st1"
   id="path18"
   inkscape:connector-curvature="0"
   style="fill:#9cebff;stroke:none;stroke-width:34;stroke-linecap:butt" />
				</g>
				<g
   id="shape12100-5"
   transform="translate(28.2654)">
					<title
   id="title21">Sheet.12100</title>
					<path
   d="M 13.06,99.56 V 114.4 L 0,121.87 V 107 Z"
   class="st2"
   id="path23"
   inkscape:connector-curvature="0"
   style="fill:#32bedd;stroke:none;stroke-width:34;stroke-linecap:butt" />
				</g>
				<g
   id="shape12101-7">
					<title
   id="title26">Sheet.12101</title>
					<path
   d="m 28.27,107.03 v 14.84 L 15.23,114.4 V 99.56 Z m -15.68,10.08 -0.92,0.93 a 0.629741,0.620058 0 0 1 -0.897381,0 L 0.38,107.83 a 1.25948,1.24012 0 0 1 0,-1.77 l 0.94,-0.92 11.27,11.09 a 0.629741,0.620058 0 0 1 0,0.86808 z"
   class="st3"
   id="path28"
   inkscape:connector-curvature="0"
   style="fill:#50e6ff;stroke:none;stroke-width:34;stroke-linecap:butt" />
				</g>
				<g
   id="shape12102-9"
   transform="translate(2.01405e-5,-13.0212)">
					<title
   id="title31">Sheet.12102</title>
					<path
   d="m 11.47,109.01 1.04,1.02 a 0.629741,0.620058 0 0 1 0,0.88048 L 1.41,121.87 0.37,120.86 a 1.27837,1.25872 0 0 1 0,-1.77 l 10.2,-10.08 a 0.629741,0.620058 0 0 1 0.894232,0 z"
   class="st4"
   id="path33"
   inkscape:connector-curvature="0"
   style="fill:#1490df;stroke:none;stroke-width:34;stroke-linecap:butt" />
				</g>
				<g
   id="shape12103-11"
   transform="translate(43.9768,-3.73063)">
					<title
   id="title36">Sheet.12103</title>
					<path
   d="m 0.18,120.78 a 0.629741,0.620058 0 0 1 0,-0.86188 L 11.4,108.9 l 0.94,0.93 a 1.25948,1.24012 0 0 1 0,1.76 L 1.99,121.7 a 0.629741,0.620058 0 0 1 -0.878488,0 z"
   class="st3"
   id="path38"
   inkscape:connector-curvature="0"
   style="fill:#50e6ff;stroke:none;stroke-width:34;stroke-linecap:butt" />
				</g>
				<g
   id="shape12104-13"
   transform="translate(44.0728,-13.0212)">
					<title
   id="title41">Sheet.12104</title>
					<path
   d="m 2.09,109.09 10.14,10.02 a 1.25948,1.24012 0 0 1 0,1.75 L 11.2,121.87 0.18,110.98 a 0.648633,0.63866 0 0 1 0,-0.88668 L 1.21,109.09 a 0.629741,0.620058 0 0 1 0.87534,0 z"
   class="st4"
   id="path43"
   inkscape:connector-curvature="0"
   style="fill:#1490df;stroke:none;stroke-width:34;stroke-linecap:butt" />
				</g>
				<g
   id="shape12105-15"
   transform="translate(26.6218,-31.9082)">
					<title
   id="title46">Sheet.12105</title>
					<path
   d="m 0.22,121.64 a 2.88421,2.83987 0 0 1 2.9,0 l 0.41,0.23 V 105.73 H 0 v 16.03 z"
   class="st5"
   id="path48"
   inkscape:connector-curvature="0"
   style="fill:url(#grad0-18);stroke:none;stroke-width:34;stroke-linecap:butt" />
				</g>
				<g
   id="shape12106-19"
   transform="translate(24.7212,-45.1415)">
					<title
   id="title51">Sheet.12106</title>
					<path
   d="m 8.85,118.26 a 5.18592,5.10618 0 1 1 -5.18,-5.1 5.18906,5.10928 0 0 1 5.18,5.1 z"
   class="st4"
   id="path53"
   inkscape:connector-curvature="0"
   style="fill:#1490df;stroke:none;stroke-width:34;stroke-linecap:butt" />
				</g>
			</g>
		</g>
	</g>
</svg>
